logos/cypress.svg

<?xml version="1.0" encoding="UTF-8"?>
<svg width="512px" height="207px" viewBox="0 0 512 207" version="1.1" xmlns="http://www.w3.org/2000/svg" preserveAspectRatio="xMidYMid">
    <title>Cypress</title>
    <defs>
        <linearGradient x1="21.9670984%" y1="36.3691998%" x2="81.6912508%" y2="66.6209673%" id="cypressGradient-1">
            <stop stop-color="#58D09E" offset="9.39%"></stop>
            <stop stop-color="#58D09E" stop-opacity="0" offset="98.83%"></stop>
        </linearGradient>
        <linearGradient x1="-2.86451031%" y1="42.449893%" x2="115.797494%" y2="63.3291929%" id="cypressGradient-2">
            <stop stop-color="#58D09E" offset="7.74%"></stop>
            <stop stop-color="#1B1E2E" offset="76.17%"></stop>
        </linearGradient>
    </defs>
    <g>
        <g>
            <path d="M3.6744519,130.619375 C1.23962514,121.752309 0,112.542333 0,103.266097 C0,60.9202555 26.595001,22.2010084 66.1830992,6.93226487 L71.3736605,20.365682 C37.2971348,33.5116477 14.4097882,66.8241748 14.4097882,103.266097 C14.4097882,111.259751 15.4722097,119.17596 17.5639664,126.80476 L3.6744519,130.619375 Z" fill="#69D3A7"></path>
            <path d="M182.645459,62.3577277 C167.239852,32.7819832 136.914824,14.4063892 103.524679,14.4063892 C91.6936067,14.4063892 80.1946891,16.6839718 69.370837,21.1617775 L63.848121,7.86100706 C76.4317042,2.65350239 89.7789849,0 103.524679,0 C142.315778,0 177.532343,21.3386971 195.428249,55.7017277 L182.645459,62.3577277 Z" fill="url(#cypressGradient-1)"></path>
            <path d="M114.633788,180.660276 L111.125513,189.151731 C110.428074,190.832296 108.83442,191.970743 107.04156,192.048188 C105.857506,192.092504 104.662266,192.125634 103.455839,192.125634 C62.1632538,192.103691 25.6298165,162.992403 16.5766669,122.88 L2.52101055,126.053109 C7.60096269,148.552713 20.3506662,168.973768 38.4237069,183.56835 C56.7072269,198.328148 79.7381916,206.476692 103.300948,206.521008 C103.334077,206.521008 103.510911,206.521008 103.510911,206.521008 C104.894602,206.521008 106.266676,206.487879 107.63918,206.432807 C115.032202,206.123025 121.639583,201.490501 124.461607,194.624538 L129.043361,183.524034 L114.633788,180.660276 Z" fill="url(#cypressGradient-2)"></path>
        </g>
        <path d="M120.380235,69.1574319 L140.511731,119.761963 L160.510279,69.1574319 L176.071207,69.1574319 L126.456255,189.803993 L112.057439,186.940235 L132.144618,138.226232 L103.911906,69.1574319 L120.380235,69.1574319 Z M72.6136471,67.8524773 C87.3330017,67.8524773 99.8503261,76.0784672 105.28441,89.3130218 L105.28441,89.3130218 L105.583005,90.0315429 L91.5499025,94.7970151 L91.2732504,94.1886387 C87.7757311,86.4161345 80.9691429,81.9604437 72.6136471,81.9604437 C66.7919059,81.9604437 61.8668101,83.9951059 57.9820639,88.0192538 C53.9979294,92.2649815 52.0501782,97.2623597 52.0501782,103.299227 C52.0501782,109.291778 54.0422454,114.388545 57.9820639,118.446252 C61.8779966,122.448887 66.7919059,124.483119 72.6136471,124.483119 C81.1575933,124.483119 88.1298286,119.916854 91.2620639,112.276867 L91.2620639,112.276867 L91.5275294,111.646548 L105.583005,116.423207 L105.28441,117.141728 C99.8503261,130.365096 87.3330017,138.591086 72.6136471,138.591086 C62.2652235,138.591086 53.8542252,135.274272 46.9039328,128.463382 C39.9976982,121.696807 36.500523,113.227724 36.500523,103.28804 C36.500523,93.2601546 39.9976982,84.7467563 46.9039328,77.9801815 C53.8542252,71.169721 62.2652235,67.8524773 72.6136471,67.8524773 Z M245.541432,77.9913681 C239.066998,71.2691092 230.987724,67.8524773 221.514003,67.8524773 C212.106541,67.8524773 204.359422,71.2028504 198.471852,77.8033479 L198.471852,69.1574319 L183.309338,69.1574319 L183.309338,163.368013 L198.471852,163.368013 L198.471852,128.640215 C204.359422,135.240713 212.095785,138.591086 221.514003,138.591086 C230.987724,138.591086 239.077755,135.174454 245.552188,128.441439 C251.927234,121.674864 255.147671,113.216538 255.147671,103.28804 C255.136914,93.2601546 251.916047,84.7579429 245.541432,77.9913681 Z M233.654857,118.424309 C229.770111,122.437701 224.845445,124.461176 219.034891,124.461176 C213.136134,124.461176 208.354743,122.482017 204.403738,118.424309 C200.463919,114.366602 198.471852,109.269835 198.471852,103.277284 C198.471852,97.1078992 200.408417,92.1100908 204.403738,87.9973109 C208.343987,83.9284168 213.124948,81.9604437 219.034891,81.9604437 C224.856202,81.9604437 229.770111,83.9951059 233.654857,87.9973109 C237.561546,92.0218891 239.454225,97.0192672 239.454225,103.277284 C239.454225,109.446669 237.55079,114.399731 233.654857,118.424309 Z M279.827792,77.2728471 L279.827792,69.1574319 L264.665277,69.1574319 L264.665277,137.275375 L279.827792,137.275375 L279.827792,98.8435361 C279.827792,92.6853378 282.306904,87.9753681 287.19844,84.8461445 C292.057277,81.7392941 297.889775,81.1644773 305.028518,83.1105076 L305.946676,83.3647866 L305.946676,68.7925782 L305.382615,68.6596303 C295.797889,66.3711193 286.180464,69.6659899 279.827792,77.2728471 Z M345.280323,67.8524773 C335.286427,67.8524773 326.808739,71.2579227 320.080027,77.9801815 C313.262252,84.7910723 309.809479,93.3044706 309.809479,103.28804 C309.809479,113.227724 313.306568,121.696807 320.212545,128.463382 C327.163267,135.274272 335.574266,138.591086 345.922259,138.591086 C359.944605,138.591086 371.997257,131.470844 378.172666,119.540813 L378.526763,118.855422 L365.699657,113.172652 L365.389876,113.780598 C361.671207,120.967099 354.532894,125.257143 346.320672,125.257143 C335.651711,125.257143 327.483805,118.744847 325.270588,108.584013 L380.275308,108.584013 L380.341997,107.931751 C381.537237,96.9418218 378.704027,87.4113076 371.941755,79.5944874 C365.212612,71.7996101 356.237123,67.8524773 345.280323,67.8524773 Z M325.724074,96.4220773 C328.41358,87.1238992 336.005808,81.1756639 345.280323,81.1756639 C354.809546,81.1756639 362.401775,87.1238992 364.858514,96.4220773 L325.724074,96.4220773 Z M420.849371,96.7869311 C412.582077,95.2393143 405.443765,93.8904739 405.443765,88.1410151 C405.443765,83.5747496 410.302171,80.3904538 417.252464,80.3904538 C424.922138,80.3904538 429.127852,83.6853244 430.112699,90.4626555 L430.223704,91.2259227 L445.384067,88.0523832 L445.276504,87.3669916 C443.237109,75.3268168 432.502319,67.841721 417.26365,67.841721 C409.615919,67.841721 403.141486,69.8208807 398.02837,73.7236975 C392.804679,77.6045714 390.159489,82.6682084 390.159489,88.7932773 C390.159489,97.6603429 395.781593,104.316343 405.222185,106.594097 C407.668168,107.168914 410.257855,107.633156 412.759341,108.097829 C422.155187,109.811523 431.030857,111.436585 431.030857,117.760861 C431.030857,122.636908 425.364867,126.031166 417.26365,126.031166 C409.018299,126.031166 404.469674,122.736296 403.351879,115.947778 L403.230118,115.195697 L388.07879,118.369237 L388.200551,119.065385 C390.403012,131.282824 401.259993,138.579899 417.252464,138.579899 C425.376054,138.579899 432.338824,136.556854 437.914891,132.576592 C443.495261,128.640215 446.313412,123.565392 446.313412,117.495395 C446.313412,101.574346 432.205445,98.9209815 420.849371,96.7869311 Z M486.533378,96.7869311 C478.268235,95.2393143 471.130353,93.8904739 471.130353,88.1410151 C471.130353,83.5747496 475.987899,80.3904538 482.936471,80.3904538 C490.607866,80.3904538 494.811429,83.6853244 495.796706,90.4626555 L495.908571,91.2259227 L511.070655,88.0523832 L510.95879,87.3669916 C508.923697,75.3268168 498.188908,67.841721 482.949378,67.841721 C475.299496,67.841721 468.824202,69.8208807 463.712807,73.7236975 C458.489546,77.6045714 455.843496,82.6682084 455.843496,88.7932773 C455.843496,97.6603429 461.466891,104.316343 470.906622,106.594097 C473.354756,107.168914 475.940571,107.633156 478.444639,108.097829 C487.841345,109.811523 496.717445,111.436585 496.717445,117.760861 C496.717445,122.636908 491.051025,126.031166 482.949378,126.031166 C474.701445,126.031166 470.153681,122.736296 469.035025,115.947778 L468.914555,115.195697 L453.765378,118.369237 L453.885849,119.065385 C456.088739,131.282824 466.944,138.579899 482.936471,138.579899 C491.05963,138.579899 498.021109,136.556854 503.601479,132.576592 C509.177546,128.640215 512,123.565392 512,117.495395 C512,101.574346 497.887731,98.9209815 486.533378,96.7869311 Z" fill="#1B1E2E"></path>
    </g>
</svg>

<svg preserveAspectRatio="xMidYMid" viewBox="0 0 512 207" xmlns="http://www.w3.org/2000/svg">
  <defs>
    <linearGradient id="cypress_svg__a" x1="21.967%" x2="81.691%" y1="36.369%" y2="66.621%">
      <stop offset="9.39%" stop-color="#58D09E"/>
      <stop offset="98.83%" stop-color="#58D09E" stop-opacity="0"/>
    </linearGradient>
    <linearGradient id="cypress_svg__b" x1="-2.865%" x2="115.797%" y1="42.45%" y2="63.329%">
      <stop offset="7.74%" stop-color="#58D09E"/>
      <stop offset="76.17%" stop-color="#1B1E2E"/>
    </linearGradient>
  </defs>
  <path fill="#69D3A7" d="M3.674 130.62A103.355 103.355 0 0 1 0 103.265C0 60.92 26.595 22.201 66.183 6.932l5.19 13.434c-34.076 13.146-56.963 46.458-56.963 82.9a89 89 0 0 0 3.154 23.539l-13.89 3.814Z"/>
  <path fill="url(#cypress_svg__a)" d="M182.645 62.358c-15.405-29.576-45.73-47.952-79.12-47.952-11.831 0-23.33 2.278-34.154 6.756L63.848 7.86C76.432 2.654 89.78 0 103.525 0c38.79 0 74.007 21.339 91.903 55.702l-12.783 6.656Z"/>
  <path fill="url(#cypress_svg__b)" d="m114.634 180.66-3.508 8.492c-.698 1.68-2.292 2.819-4.084 2.896a95.74 95.74 0 0 1-3.586.078c-41.293-.022-77.826-29.134-86.88-69.246l-14.055 3.173c5.08 22.5 17.83 42.92 35.903 57.515 18.283 14.76 41.314 22.909 64.877 22.953h.21c1.384 0 2.756-.033 4.128-.088 7.393-.31 14-4.942 16.823-11.808l4.581-11.101-14.41-2.864Z"/>
  <path fill="#1B1E2E" d="m120.38 69.157 20.132 50.605 19.998-50.605h15.561l-49.615 120.647-14.399-2.864 20.088-48.714-28.233-69.069h16.468Zm-47.766-1.305c14.719 0 27.236 8.226 32.67 21.461l.299.719-14.033 4.765-.277-.608C87.776 86.416 80.97 81.96 72.613 81.96c-5.821 0-10.746 2.035-14.63 6.06-3.985 4.245-5.933 9.242-5.933 15.28 0 5.992 1.992 11.089 5.932 15.146 3.896 4.003 8.81 6.037 14.632 6.037 8.544 0 15.516-4.566 18.648-12.206l.266-.63 14.055 4.776-.299.719c-5.434 13.223-17.951 21.45-32.67 21.45-10.349 0-18.76-3.318-25.71-10.129-6.906-6.766-10.403-15.235-10.403-25.175 0-10.028 3.497-18.541 10.403-25.308 6.95-6.81 15.361-10.128 25.71-10.128Zm172.927 10.14c-6.474-6.723-14.553-10.14-24.027-10.14-9.407 0-17.155 3.35-23.042 9.951v-8.646h-15.163v94.211h15.163V128.64c5.887 6.6 13.624 9.951 23.042 9.951 9.474 0 17.564-3.417 24.038-10.15 6.375-6.766 9.596-15.224 9.596-25.153-.011-10.028-3.232-18.53-9.607-25.297Zm-11.886 40.432c-3.885 4.014-8.81 6.037-14.62 6.037-5.899 0-10.68-1.979-14.631-6.037-3.94-4.057-5.932-9.154-5.932-15.147 0-6.17 1.936-11.167 5.932-15.28 3.94-4.069 8.72-6.037 14.63-6.037 5.822 0 10.736 2.035 14.62 6.037 3.908 4.025 5.8 9.022 5.8 15.28 0 6.17-1.903 11.123-5.8 15.147Zm46.173-41.151v-8.116h-15.163v68.118h15.163V98.844c0-6.159 2.479-10.869 7.37-13.998 4.86-3.107 10.692-3.682 17.83-1.735l.919.254V68.793l-.564-.133c-9.585-2.289-19.203 1.006-25.555 8.613Zm65.452-9.42c-9.994 0-18.471 3.405-25.2 10.127-6.818 6.811-10.27 15.324-10.27 25.308 0 9.94 3.497 18.409 10.403 25.175 6.95 6.811 15.361 10.128 25.71 10.128 14.022 0 26.074-7.12 32.25-19.05l.354-.686-12.827-5.682-.31.608c-3.719 7.186-10.857 11.476-19.07 11.476-10.668 0-18.836-6.512-21.05-16.673h55.005l.067-.652c1.195-10.99-1.638-20.52-8.4-28.338-6.73-7.794-15.705-11.742-26.662-11.742Zm-19.556 28.57c2.69-9.3 10.282-15.247 19.556-15.247 9.53 0 17.122 5.948 19.579 15.246h-39.135Zm95.125.364c-8.267-1.548-15.405-2.897-15.405-8.646 0-4.566 4.858-7.75 11.808-7.75 7.67 0 11.876 3.294 12.86 10.072l.112.763 15.16-3.174-.107-.685c-2.04-12.04-12.775-19.525-28.013-19.525-7.648 0-14.123 1.979-19.236 5.882-5.223 3.88-7.869 8.944-7.869 15.07 0 8.866 5.623 15.522 15.063 17.8 2.446.575 5.036 1.04 7.537 1.504 9.396 1.714 18.272 3.339 18.272 9.663 0 4.876-5.666 8.27-13.767 8.27-8.246 0-12.794-3.295-13.912-10.083l-.122-.752-15.151 3.173.122.696c2.202 12.218 13.059 19.515 29.051 19.515 8.124 0 15.087-2.023 20.663-6.003 5.58-3.937 8.398-9.012 8.398-15.082 0-15.92-14.108-18.574-25.464-20.708Zm65.684 0c-8.265-1.548-15.403-2.897-15.403-8.646 0-4.566 4.858-7.75 11.806-7.75 7.672 0 11.875 3.294 12.86 10.072l.113.763 15.162-3.174-.112-.685c-2.035-12.04-12.77-19.525-28.01-19.525-7.65 0-14.125 1.979-19.236 5.882-5.223 3.88-7.87 8.944-7.87 15.07 0 8.866 5.624 15.522 15.064 17.8 2.448.575 5.034 1.04 7.538 1.504 9.396 1.714 18.272 3.339 18.272 9.663 0 4.876-5.666 8.27-13.768 8.27-8.248 0-12.795-3.295-13.914-10.083l-.12-.752-15.15 3.173.12.696c2.204 12.218 13.059 19.515 29.051 19.515 8.124 0 15.085-2.023 20.665-6.003 5.577-3.937 8.399-9.012 8.399-15.082 0-15.92-14.112-18.574-25.467-20.708Z"/>
</svg>
